src/assets/svgs/refactor/story-bucket.svg

<svg fill="none" height="282" viewBox="0 0 393 282" width="393" xmlns="http://www.w3.org/2000/svg"><path d="m294.75 4.66113h-196.5l-98.25 136.32987 98.25 136.329h196.5l98.25-136.329z" fill="#4c4c4c"/><g fill="#ffdeb5"><path d="m234.268 282c16.241 0 30.374-29.247 37.768-72.457 7.393 43.21 21.526 72.457 37.768 72.457 23.877 0 43.222-63.135 43.222-140.99 0-77.8557-19.369-141.01-43.247-141.01-16.241 0-30.374 29.2467-37.768 72.4566-7.369-43.2099-21.502-72.4566-37.743-72.4566-16.242 0-30.375 29.2467-37.768 72.4566-7.394-43.2099-21.527-72.4566-37.768-72.4566-16.242 0-30.375 29.2467-37.768 72.4566-7.37-43.2099-21.5265-72.4566-37.7681-72.4566-23.8777 0-43.2223 63.1349-43.2223 140.99 0 77.856 19.3446 140.991 43.2223 140.991 16.2416 0 30.3741-29.247 37.7681-72.457 7.393 43.21 21.526 72.457 37.768 72.457 16.241 0 30.374-29.247 37.768-72.457 7.393 43.21 21.526 72.457 37.768 72.457z"/><path d="m183.167 72.4566c1.818-10.7005 4.073-20.5465 6.666-29.305-7.854-26.5862-18.884-43.1516-31.101-43.1516-2.255 0-4.485.582604-6.667 1.68955 13.382 6.75821 24.751 33.57745 31.102 70.76705z"/><path d="m76.5301 280.31c2.1817 1.107 4.4119 1.69 6.6664 1.69 12.2176 0 23.2475-16.546 31.1015-43.152-2.594-8.759-4.824-18.605-6.666-29.305-6.352 37.19-17.7207 64.009-31.1261 70.767z"/><path d="m107.656 72.4566c1.818-10.7005 4.073-20.5465 6.666-29.305-7.878-26.6056-18.9078-43.1516-31.1254-43.1516-2.2787 0-4.5089.582604-6.6663 1.68955 13.4054 6.75821 24.7507 33.57745 31.1257 70.76705z"/><path d="m339.669 140.99c0 70.457-15.853 128.853-36.531 139.32 2.157 1.088 4.387 1.69 6.642 1.69 23.877 0 43.222-63.135 43.222-140.99 0-77.8557-19.345-141.01-43.222-141.01-2.255 0-4.485.582605-6.642 1.68955 20.702 10.46745 36.531 68.86385 36.531 139.32045z"/><path d="m258.703 72.4566c1.818-10.7005 4.073-20.5465 6.667-29.305-7.855-26.5862-18.884-43.1516-31.102-43.1516-2.279 0-4.485.582604-6.666 1.68955 13.381 6.75821 24.75 33.57745 31.101 70.76705z"/><path d="m152.065 280.31c2.182 1.107 4.388 1.69 6.667 1.69 12.217 0 23.247-16.546 31.101-43.152-2.593-8.759-4.824-18.605-6.666-29.305-6.351 37.19-17.72 64.009-31.102 70.767z"/><path d="m227.602 280.31c2.181 1.107 4.387 1.69 6.666 1.69 12.218 0 23.247-16.546 31.102-43.152-2.594-8.759-4.825-18.605-6.667-29.305-6.351 37.19-17.72 64.009-31.101 70.767z"/></g><path d="m227.602 1.68955c-2.182-1.106946-4.388-1.68955-6.666-1.68955-12.218 0-23.248 16.546-31.102 43.1516 2.594 8.7585 4.824 18.6045 6.666 29.305 6.352-37.1896 17.721-64.00884 31.102-70.76705z" fill="#ff684b"/><path d="m296.472 282c2.278 0 4.508-.583 6.666-1.69-13.406-6.758-24.75-33.577-31.126-70.767-1.818 10.7-4.072 20.546-6.666 29.305 7.854 26.586 18.884 43.152 31.101 43.152z" fill="#ff684b"/><path d="m120.964 209.543c-1.818 10.7-4.072 20.546-6.666 29.305 7.854 26.586 18.884 43.152 31.101 43.152 2.279 0 4.485-.583 6.667-1.69-13.381-6.758-24.751-33.577-31.102-70.767z" fill="#ff684b"/><path d="m303.137 1.68955c-2.182-1.106946-4.412-1.68955-6.666-1.68955-12.218 0-23.248 16.546-31.102 43.1516 2.594 8.7585 4.824 18.6045 6.666 29.305 6.352-37.1896 17.721-64.00884 31.126-70.76705z" fill="#ff684b"/><path d="m39.9978 140.99c0-70.456 15.8295-128.833 36.5316-139.30045-2.1575-1.087525-4.3877-1.68955-6.6421-1.68955-23.8777 0-43.2223 63.1349-43.2223 140.99 0 77.856 19.3446 140.991 43.2223 140.991 2.2544 0 4.4846-.583 6.6421-1.69-20.7021-10.467-36.5316-68.864-36.5316-139.32z" fill="#ff684b"/><path d="m152.066 1.68955c-2.182-1.106946-4.388-1.68955-6.667-1.68955-12.217 0-23.247 16.546-31.101 43.1516 2.594 8.7585 4.824 18.6045 6.666 29.305 6.351-37.1896 17.721-64.00884 31.102-70.76705z" fill="#ff684b"/><path d="m196.5 209.543c-1.818 10.7-4.072 20.546-6.666 29.305 7.854 26.586 18.884 43.152 31.102 43.152 2.254 0 4.484-.583 6.666-1.69-13.381-6.758-24.75-33.577-31.102-70.767z" fill="#ff684b"/></svg>

<svg width="393" height="282" viewBox="0 0 393 282" fill="none" xmlns="http://www.w3.org/2000/svg">
<path d="M294.75 4.66113H98.25L0 140.991L98.25 277.32H294.75L393 140.991L294.75 4.66113Z" fill="#4C4C4C"/>
<g style="mix-blend-mode:multiply">
<path d="M234.268 282C250.509 282 264.642 252.753 272.036 209.543C279.429 252.753 293.562 282 309.804 282C333.681 282 353.026 218.865 353.026 141.01C353.026 63.1543 333.657 0 309.779 0C293.538 0 279.405 29.2467 272.011 72.4566C264.642 29.2467 250.509 0 234.268 0C218.026 0 203.893 29.2467 196.5 72.4566C189.106 29.2467 174.973 0 158.732 0C142.49 0 128.357 29.2467 120.964 72.4566C113.594 29.2467 99.4375 0 83.1959 0C59.3182 0 39.9736 63.1349 39.9736 140.99C39.9736 218.846 59.3182 281.981 83.1959 281.981C99.4375 281.981 113.57 252.734 120.964 209.524C128.357 252.734 142.49 281.981 158.732 281.981C174.973 281.981 189.106 252.734 196.5 209.524C203.893 252.734 218.026 281.981 234.268 281.981V282Z" fill="#FFDEB5"/>
</g>
<g style="mix-blend-mode:multiply">
<path d="M183.167 72.4566C184.985 61.7561 187.24 51.9101 189.833 43.1516C181.979 16.5654 170.949 0 158.732 0C156.477 0 154.247 0.582604 152.065 1.68955C165.447 8.44776 176.816 35.267 183.167 72.4566Z" fill="#FFDEB5"/>
</g>
<g style="mix-blend-mode:multiply">
<path d="M76.5301 280.31C78.7118 281.417 80.942 282 83.1965 282C95.4141 282 106.444 265.454 114.298 238.848C111.704 230.089 109.474 220.243 107.632 209.543C101.28 246.733 89.9113 273.552 76.5059 280.31H76.5301Z" fill="#FFDEB5"/>
</g>
<g style="mix-blend-mode:multiply">
<path d="M107.656 72.4566C109.474 61.7561 111.729 51.9101 114.322 43.1516C106.444 16.546 95.4142 0 83.1966 0C80.9179 0 78.6877 0.582604 76.5303 1.68955C89.9357 8.44776 101.281 35.267 107.656 72.4566Z" fill="#FFDEB5"/>
</g>
<g style="mix-blend-mode:multiply">
<path d="M339.669 140.99C339.669 211.447 323.816 269.843 303.138 280.31C305.295 281.398 307.525 282 309.78 282C333.657 282 353.002 218.865 353.002 141.01C353.002 63.1543 333.657 0 309.78 0C307.525 0 305.295 0.582605 303.138 1.68955C323.84 12.157 339.669 70.5534 339.669 141.01V140.99Z" fill="#FFDEB5"/>
</g>
<g style="mix-blend-mode:multiply">
<path d="M258.703 72.4566C260.521 61.7561 262.776 51.9101 265.37 43.1516C257.515 16.5654 246.486 0 234.268 0C231.989 0 229.783 0.582604 227.602 1.68955C240.983 8.44776 252.352 35.267 258.703 72.4566Z" fill="#FFDEB5"/>
</g>
<g style="mix-blend-mode:multiply">
<path d="M152.065 280.31C154.247 281.417 156.453 282 158.732 282C170.949 282 181.979 265.454 189.833 238.848C187.24 230.089 185.009 220.243 183.167 209.543C176.816 246.733 165.447 273.552 152.065 280.31Z" fill="#FFDEB5"/>
</g>
<g style="mix-blend-mode:multiply">
<path d="M227.602 280.31C229.783 281.417 231.989 282 234.268 282C246.486 282 257.515 265.454 265.37 238.848C262.776 230.089 260.545 220.243 258.703 209.543C252.352 246.733 240.983 273.552 227.602 280.31Z" fill="#FFDEB5"/>
</g>
<path d="M227.602 1.68955C225.42 0.582604 223.214 0 220.936 0C208.718 0 197.688 16.546 189.834 43.1516C192.428 51.9101 194.658 61.7561 196.5 72.4566C202.852 35.267 214.221 8.44776 227.602 1.68955Z" fill="#FF684B"/>
<path d="M296.472 282C298.75 282 300.98 281.417 303.138 280.31C289.732 273.552 278.388 246.733 272.012 209.543C270.194 220.243 267.94 230.089 265.346 238.848C273.2 265.434 284.23 282 296.447 282H296.472Z" fill="#FF684B"/>
<path d="M120.964 209.543C119.146 220.243 116.892 230.089 114.298 238.848C122.152 265.434 133.182 282 145.399 282C147.678 282 149.884 281.417 152.066 280.31C138.685 273.552 127.315 246.733 120.964 209.543Z" fill="#FF684B"/>
<path d="M303.137 1.68955C300.955 0.582604 298.725 0 296.471 0C284.253 0 273.223 16.546 265.369 43.1516C267.963 51.9101 270.193 61.7561 272.035 72.4566C278.387 35.267 289.756 8.44776 303.161 1.68955H303.137Z" fill="#FF684B"/>
<path d="M39.9978 140.99C39.9978 70.534 55.8273 12.157 76.5294 1.68955C74.3719 0.602025 72.1417 0 69.8873 0C46.0096 0 26.665 63.1349 26.665 140.99C26.665 218.846 46.0096 281.981 69.8873 281.981C72.1417 281.981 74.3719 281.398 76.5294 280.291C55.8273 269.824 39.9978 211.427 39.9978 140.971V140.99Z" fill="#FF684B"/>
<path d="M152.066 1.68955C149.884 0.582604 147.678 0 145.399 0C133.182 0 122.152 16.546 114.298 43.1516C116.892 51.9101 119.122 61.7561 120.964 72.4566C127.315 35.267 138.685 8.44776 152.066 1.68955Z" fill="#FF684B"/>
<path d="M196.5 209.543C194.682 220.243 192.428 230.089 189.834 238.848C197.688 265.434 208.718 282 220.936 282C223.19 282 225.42 281.417 227.602 280.31C214.221 273.552 202.852 246.733 196.5 209.543Z" fill="#FF684B"/>
</svg>
